X: 58
T:Irish Waterman,2nd part. JNu.33
M:6/8
Q:120
S:James Nuttall MS,c1830,Rossendale,East Lancs.
R:Jig
O:England
A:East Lancashire
Z:vmp.Chris Partington
K:G
"secundo"z|G2DB,D2|GDG BAG|A2FF2F|AFA cBA|!
G2DB,2D|GDG BAG|CCCD2C|B,B,B,B,2:|!
|:z|gdd Bdd|gdg gfe|fdA DFA|dAd fed|!
e3d3|c3B3|CCC DDD|B,B,B,B,2:|]
